X: 5451
T: Bunch Of Green Rushes, The
R: reel
M: 4/4
K: Dmixolydian
d|:"Dm" cAGE "F"=F3 A|"F"cAGc "Dm"Ad ~d2|"Dm" cAGE "F" =F2eg|"D" fdec Ad ~d2:|
|:"Dm" Ad ~d2 cA G2|"F" (3DE=F AB cA G2|"Dm" Ad ~d2 cA G2|"Dm" (3Bcd eg "D"fd d2:|
"D" d2 fd adfd|"C" c2 ec gcec|"D" d2 fd adfd|"C"cAGc "D" AD ~D2|
"D" d2 fd adfd|"C" c2 ec gcec|"Dm"~a3g =f3 e|"Dm"dcAG Ad~d2||

